src/components/Icon/assets/camera.svg

<svg width="24" height="24" viewBox="0 0 24 24" fill="none" xmlns="http://www.w3.org/2000/svg">
<path fill-rule="evenodd" clip-rule="evenodd" d="M6.5002 13.0001C6.5002 16.0321 8.9672 18.5001 12.0002 18.5001C15.0332 18.5001 17.5002 16.0321 17.5002 13.0001C17.5002 9.96712 15.0332 7.50012 12.0002 7.50012C8.9672 7.50012 6.5002 9.96712 6.5002 13.0001ZM17.0002 7.00012H21.5002C21.7762 7.00012 22.0002 7.22412 22.0002 7.50012V19.5001C22.0002 19.7761 21.7762 20.0001 21.5002 20.0001H2.5002C2.2242 20.0001 2.0002 19.7761 2.0002 19.5001V7.50012C2.0002 7.22412 2.2242 7.00012 2.5002 7.00012H7.0002L7.8622 5.27612C7.9462 5.10612 8.1202 5.00012 8.3092 5.00012H15.6912C15.8802 5.00012 16.0532 5.10612 16.1382 5.27612L17.0002 7.00012ZM8.0002 13.0001C8.0002 10.7911 9.7912 9.00012 12.0002 9.00012C14.2092 9.00012 16.0002 10.7911 16.0002 13.0001C16.0002 15.2091 14.2092 17.0001 12.0002 17.0001C9.7912 17.0001 8.0002 15.2091 8.0002 13.0001Z" fill="#65676A"/>
</svg>

<svg xmlns="http://www.w3.org/2000/svg" width="24" height="24" viewBox="0 0 24 24">
    <path fill="#65676A" fill-rule="evenodd" d="M15.691 5c.19 0 .362.106.447.276L17 7h4.5c.276 0 .5.224.5.5v12c0 .276-.224.5-.5.5h-19c-.276 0-.5-.224-.5-.5v-12c0-.276.224-.5.5-.5H7l.862-1.724C7.946 5.106 8.12 5 8.31 5zm-3.69 2.5c-3.034 0-5.5 2.467-5.5 5.5 0 3.032 2.466 5.5 5.5 5.5 3.032 0 5.5-2.468 5.5-5.5 0-3.033-2.468-5.5-5.5-5.5zM12 9c2.208 0 4 1.791 4 4 0 2.21-1.792 4-4 4-2.21 0-4-1.79-4-4 0-2.209 1.79-4 4-4z"/>
</svg>
